X: 1
T:La fiance hongroise - Valse  5 temps
C:Trad 2, 16
M:5/4
L:1/4
K:C
A|ABA2G|ABc2B|cde2f|ede2d|\
cBc2d|cBA2:|\
|:A|AAe2e|
fed2B|cde2f/e/|dcB2e|\
eeA2G|cde2c|ded2B|cBA2:|
